cached_logos/hudl-adopter.svg

<svg xmlns="http://www.w3.org/2000/svg" role="img" viewBox="9.37 7.37 91.39 32.14"><title>Hudl (adopter) logo</title><g fill="none" fill-rule="evenodd"><g><path fill="#000" d="M52.2433929,18.4921346 C51.3104954,18.4947517 50.38597,18.6682501 49.5155991,19.0040383 L49.5155991,11.7555536 L44,11.7555536 L44,34.0692847 L49.5146898,34.0692847 L49.5146898,22.9837947 C49.8837142,22.8294344 50.2803822,22.7520829 50.6803671,22.756484 C51.8460443,22.756484 52.357051,23.3247608 52.357051,24.3767549 L52.357051,34.0692847 L57.8717408,34.0692847 L57.8717408,23.7793823 C57.8717408,20.3715397 55.9395535,18.4921346 52.2433929,18.4921346 L52.2433929,18.4921346 Z M68.4201195,29.834031 C68.1928033,29.9194999 67.7663582,29.9758729 67.2544423,29.9758729 C66.2315196,29.9758729 65.6914164,29.549438 65.6914164,28.5829127 L65.6914164,18.7485411 L60.1767266,18.7485411 L60.1767266,28.4410708 C60.1767266,32.7336068 62.5362682,34.4420743 67.2544423,34.4420743 C69.8131129,34.4420743 72.4563451,33.9874528 73.9348093,33.3055206 L73.9348093,18.7485411 L68.4201195,18.7485411 L68.4201195,29.834031 L68.4201195,29.834031 Z M85.0823934,18.8321914 C84.5535157,18.6909519 84.0094103,18.6146202 83.4620839,18.6048807 C78.6593482,18.6057899 76.2161542,21.6444798 76.2161542,26.394365 C76.2161542,31.6525169 79.0303282,34.4384373 84.2604182,34.4384373 C86.9609341,34.4384373 89.2913792,33.9556293 90.5989017,33.3018836 L90.5989017,11.7528259 L85.0833026,11.7528259 L85.0833026,18.8303729 L85.0823934,18.8321914 Z M85.0823934,30.0595233 C84.8832644,30.1449921 84.514103,30.1731787 84.1440323,30.1731787 C82.5810065,30.1731787 81.7281163,28.9511561 81.7281163,26.3361734 C81.7281163,24.1194391 82.5528193,22.6691966 84.0876579,22.6691966 C84.4859158,22.6691966 84.9123609,22.7546655 85.0823934,22.8401343 L85.0823934,30.0604325 L85.0823934,30.0595233 Z M93.5203689,11.7555536 L93.5203689,34.0692847 L99.0386958,34.0692847 L99.0386958,11.7555536 L93.5203689,11.7555536 L93.5203689,11.7555536 Z"/><path fill="#FF6300" d="M25.6188422,37.8744664 C23.339885,37.8769434 21.3564696,36.3165684 20.8224714,34.1011082 C20.8157345,34.0722752 20.7953796,34.0485284 20.7679156,34.0374612 C20.1189743,33.7764285 19.4922577,33.4632298 18.8939212,33.1009409 C18.8764629,33.090487 18.8630159,33.0744791 18.8557321,33.0554788 C17.9821155,30.7902887 17.7582167,28.3262006 18.209245,25.9406528 C18.2155336,25.9066633 18.2405517,25.8791792 18.2738027,25.8697318 L18.291988,25.8697318 C18.3195625,25.8666869 18.3470185,25.8763968 18.3665477,25.8960998 C19.5712055,27.1982716 21.0308048,28.2387839 22.6546396,28.9529746 C22.6664156,28.9579966 22.6791193,28.9604753 22.6919195,28.9602486 C22.7111801,28.9603172 22.729965,28.9542679 22.7455661,28.9429729 C24.8897848,27.4028393 27.8675735,27.8306931 29.4914002,29.9122259 C29.5087609,29.934779 29.5356806,29.947902 29.5641413,29.9476864 L29.5750525,29.9476864 C30.0242292,29.8867671 30.4843171,29.800389 30.9316753,29.6930984 C33.6145995,29.04157 36.0241759,27.5616278 37.8184454,25.4633002 C37.8359274,25.4428592 37.8615627,25.4312071 37.8884588,25.4314767 C37.9036913,25.4314005 37.9186989,25.4351523 37.9321035,25.4423876 C37.9700059,25.4626063 37.9885866,25.5065921 37.9766575,25.5478598 C36.8957541,29.3696116 34.1259963,32.4869803 30.4579485,34.0101839 C30.4304844,34.0212511 30.4101295,34.0449979 30.4033926,34.0738309 C29.8844662,36.2979157 27.9027135,37.8721325 25.6188422,37.8744664 Z M16.4234493,31.1169728 C16.3988342,31.1171166 16.3752126,31.1072745 16.3579822,31.0896955 C13.5722699,28.2584122 12.2562061,24.2958749 12.7945742,20.3606288 C12.7986473,20.3312413 12.7881261,20.301715 12.766387,20.2815247 C11.1025729,18.7217873 10.7276666,16.2236208 11.8603538,14.2442251 C12.9930409,12.2648295 15.3368292,11.3223316 17.5245687,11.966498 C17.553165,11.9749384 17.5840824,11.968823 17.6073118,11.9501316 C18.1577143,11.512874 18.7434746,11.1220723 19.3585554,10.7817544 C19.3722302,10.7743696 19.3875696,10.7706131 19.4031094,10.7708435 C21.8131339,11.1438279 24.0702365,12.185252 25.9179903,13.7768007 C25.9441002,13.7991701 25.9553591,13.8343535 25.9470867,13.867725 C25.939131,13.9018803 25.9122412,13.9284157 25.8779826,13.9359182 C24.1433542,14.3270196 22.5080598,15.0717526 21.0743377,16.1235567 C21.0477504,16.1426897 21.0335094,16.1746442 21.0370579,16.207207 C21.0544884,16.3727253 21.0632899,16.5390388 21.0634266,16.7054722 C21.0467424,19.1516549 19.2446946,21.2183764 16.8235257,21.5681034 C16.790857,21.572331 16.7630297,21.5938966 16.7507845,21.6244765 C16.5780243,22.0481837 16.4243585,22.4864388 16.2961522,22.9274216 C15.5200055,25.5727542 15.5957139,28.3952116 16.5125572,30.9951343 C16.5228786,31.0236069 16.5183455,31.0553495 16.500467,31.0797951 C16.4825884,31.1042407 16.4537115,31.1181801 16.4234493,31.1169728 L16.4234493,31.1169728 Z M32.5601682,26.5298422 C32.5302641,26.5313292 32.5015446,26.5179995 32.4833771,26.4942006 C32.4652096,26.4704018 32.4599231,26.4391847 32.4692418,26.4107314 C32.9887605,24.7374676 33.1629213,22.9761041 32.9811577,21.233502 C32.9779292,21.2013202 32.9578477,21.173276 32.9284204,21.1598534 C31.1953896,20.3516184 30.0836195,18.616732 30.0733295,16.7045629 C30.0696535,16.0608494 30.1932577,15.422758 30.4370354,14.8269763 C30.4497842,14.7967547 30.4452672,14.7620094 30.4252149,14.736052 C30.1311066,14.3506924 29.8169784,13.9810315 29.4841261,13.6285941 C27.5827746,11.6318387 25.1016753,10.2834888 22.3918621,9.77431322 C22.3477559,9.76670946 22.3157425,9.72814002 22.3163932,9.68338893 C22.3151463,9.64059112 22.3439272,9.60272231 22.3854973,9.59246463 C26.2661438,8.59183447 30.3914602,9.46566738 33.5330813,11.9537686 C33.5493223,11.9667984 33.5695433,11.9738595 33.590365,11.9737719 C33.5994059,11.9751435 33.608602,11.9751435 33.617643,11.9737719 C34.0635338,11.8392297 34.5267034,11.7706136 34.992451,11.7701015 C37.0140355,11.7645997 38.8333967,12.9957848 39.5798692,14.8744664 C40.3263418,16.753148 39.8480988,18.8972162 38.3740061,20.2806154 C38.352267,20.3008057 38.3417459,20.3303321 38.3458189,20.3597196 C38.4236171,20.930473 38.4631069,21.5057954 38.4640233,22.0818257 C38.4640233,22.135471 38.4640233,22.1882071 38.4567492,22.2409432 L38.4503843,22.3418692 C38.4500624,22.3620658 38.4430242,22.3815802 38.4303805,22.397333 C36.9066411,24.290342 34.8841259,25.7197998 32.5910832,26.5243867 L32.5601682,26.5298422 Z"/></g></g></svg>

<svg xmlns="http://www.w3.org/2000/svg" role="img" viewBox="9.37 7.37 91.39 32.14"><g fill="none" fill-rule="evenodd"><path fill="#000" d="M52.243 18.492a7.638 7.638 0 0 0-2.727.512v-7.248H44v22.313h5.515V22.984a2.937 2.937 0 0 1 1.165-.228c1.166 0 1.677.569 1.677 1.62v9.693h5.515V23.78c0-3.407-1.932-5.287-5.629-5.287zM68.42 29.834c-.227.085-.654.142-1.166.142-1.022 0-1.563-.427-1.563-1.393v-9.834h-5.514v9.692c0 4.293 2.36 6.001 7.077 6.001 2.56 0 5.202-.455 6.68-1.136V18.749H68.42v11.085zm16.662-11.002a6.745 6.745 0 0 0-1.62-.227c-4.803 0-7.246 3.04-7.246 7.79 0 5.258 2.814 8.043 8.044 8.043 2.7 0 5.031-.482 6.339-1.136v-21.55h-5.516v7.08zm0 11.228c-.199.085-.568.113-.938.113-1.563 0-2.416-1.222-2.416-3.837 0-2.217.825-3.667 2.36-3.667.398 0 .824.086.994.171v7.22zm8.438-18.304v22.313h5.519V11.756H93.52z"/><path fill="#FF6300" d="M25.619 37.874a4.928 4.928 0 0 1-4.797-3.773.09.09 0 0 0-.054-.064 12.945 12.945 0 0 1-1.874-.936.09.09 0 0 1-.038-.046 13.04 13.04 0 0 1-.647-7.114.09.09 0 0 1 .065-.071h.018a.09.09 0 0 1 .075.026 12.937 12.937 0 0 0 4.288 3.057.09.09 0 0 0 .037.007.09.09 0 0 0 .054-.017 4.917 4.917 0 0 1 6.745.97.09.09 0 0 0 .073.035h.011a13.142 13.142 0 0 0 8.243-4.484.09.09 0 0 1 .07-.033.09.09 0 0 1 .089.117 12.991 12.991 0 0 1-7.52 8.462.09.09 0 0 0-.054.064 4.918 4.918 0 0 1-4.784 3.8zm-9.196-6.757a.09.09 0 0 1-.065-.027 12.82 12.82 0 0 1-3.563-10.73.09.09 0 0 0-.029-.078 4.923 4.923 0 0 1 4.759-8.316.09.09 0 0 0 .082-.016 12.62 12.62 0 0 1 1.752-1.168.09.09 0 0 1 .044-.011 13.038 13.038 0 0 1 6.515 3.006.09.09 0 0 1 .03.09.09.09 0 0 1-.07.069 12.928 12.928 0 0 0-4.804 2.188.09.09 0 0 0-.037.083c.017.166.026.332.026.498a4.947 4.947 0 0 1-4.24 4.863.09.09 0 0 0-.072.056 13.3 13.3 0 0 0-.455 1.303c-.776 2.646-.7 5.468.217 8.068a.09.09 0 0 1-.09.122zM32.56 26.53a.09.09 0 0 1-.09-.12c.519-1.673.693-3.434.511-5.176a.09.09 0 0 0-.053-.074 4.945 4.945 0 0 1-2.855-4.455 4.884 4.884 0 0 1 .364-1.878.09.09 0 0 0-.012-.09 13.145 13.145 0 0 0-8.033-4.962.09.09 0 0 1-.076-.092.09.09 0 0 1 .07-.09 12.807 12.807 0 0 1 11.147 2.36.09.09 0 0 0 .057.02.09.09 0 0 0 .028 0 4.811 4.811 0 0 1 1.374-.203 4.922 4.922 0 0 1 3.382 8.51.09.09 0 0 0-.028.08c.078.57.117 1.146.118 1.722 0 .053 0 .106-.007.159l-.007.1a.09.09 0 0 1-.02.056 13.037 13.037 0 0 1-5.839 4.127l-.03.006z"/></g></svg>
